X:259
T:Wise Maid
M:4/4
R:Reel
K:D
||: "D" F2FG FEDE | FAAB "G"AFED | "D"d2(3efg fd"A"ec | "Em"dBAF "G"BEED|
"D"F2FG FEDE | FAAB "G"AFED | "D"d2(3efg "A"fdec|"G"dBAG "D"FDD2:|
|: "D"d2AG FDFA | dfaf "G"gfeg | "Bm"fddf "A"ecce | "G"dfed "A"cBA2 |
"G"B2GB "D"A2FA | "D"dfaf "G"gfed | "Em"(3Bcd ec "G"dBAG |1 "A"FGEF "D"D4:|
2 "A"FGEF "D"D3E:||
